X: 12209
T: Fagan's Workshop
R: jig
M: 6/8
K: Emixolydian
|:~E3 BAF|AFE E2c|dBB eBG|AdF FED|
~E3 BAF|AFE EFA|d2e fac|1 cBA BdF:|2 cBA Bcd||
|:eBB eBg|eBB dBA|Bee ^deB|A=dF AB/c/d|
eBB eBg|eBB ABc|d2e fac|1 cBA Bcd:|2 cBA BdF||

